X:1
T:Title
%%score { ( 1 3 ) | ( 2 4 ) }
L:1/8
M:4/4
K:G
V:1 treble nm="Grand Piano"
V:3 treble 
V:2 treble 
V:4 treble 
V:1
 z4 z2[Q:1/4=100] B>c | d2 G>G G2 FG | [FA]2 [FA]2 [FA]2 [FA]>[GB] | [Ac]2 F2 F2 EF | %4
[M:3/4] G2 G2 G2 |[M:1/4] B>c |[M:4/4] d2 G2 G2 FG | [FA]2 [GB]2 [Ac]2 [Ac]>[Ac] | %8
 B2 d>e d2 [DG][EGA] | [DGB]2 [CFA]2 [B,G]4 | d2 e>d B2 G2 | [FA]4 G3 A | %12
 [DGB]2 [B,Gd]>[CGe] [B,Gd]2 [DGB]2 | A2- [EA-]2 [DA-]2 [CA]2 | B>A B>c d2 [=Fd]2 | d2 z2 [Ge]4 | %16
 .[Ge]2 [DGB]>[B,G] [DGB]2 [CFA]2 |[M:3/4] [B,G]6 |] %18
V:2
 z4 z2 [G,D]>[G,A,D] | [G,B,G]2 [G,B,D]>[G,B,D][K:bass] [G,B,D]2 [A,CD][G,B,D] | %2
 [D,D]2 [D,D]2 [D,D]2 [D,D]>[D,D] | [D,D]2 [D,CD]2 [D,CD]2 [D,C][D,CD] | %4
[M:3/4][K:treble] [G,B,D]2 [G,CE]2 [G,B,D]2 |[M:1/4] [G,D]>[G,A,D] | %6
[M:4/4] [G,B,G]2[K:bass] [G,B,D]2 [G,B,D]2 [A,CD][G,B,D] | [D,D]2 [D,D]2 [D,D]2 [D,D]>[D,D] | %8
 [G,DG]2 [G,B,G]>[G,CG] [G,B,G]2[K:bass] B,,C, | D,2 D,2 G,,4 | %10
 [G,B,G]2 [G,CG]>[G,B,G] [G,DG]2 [G,B,]2 | D,2 C,2 B,,2 z F | G,,2 G,,>G,, G,,2 B,,2 | %13
 z2 C2 B,2 A,2 | D->[F,A,D][K:treble] [G,D]>[G,A,D] [G,B,G]2[K:bass] [B,,G,]2 | %15
 C,2- [C,-c]2 [C,C]4 | z[K:treble] d[K:bass] D,>D, D,2 D,2 |[M:3/4] G,,6 |] %18
V:3
 x8 | x8 | x8 | x8 |[M:3/4] x6 |[M:1/4] x2 |[M:4/4] x8 | x8 | x8 | x8 | x8 | D8 | x8 | %13
 [DF]2 z2 z4 | x8 | E4 z4 | x8 |[M:3/4] x6 |] %18
V:4
 x8 | x4[K:bass] x4 | x8 | x8 |[M:3/4][K:treble] x6 |[M:1/4] x2 |[M:4/4] x2[K:bass] x6 | x8 | %8
 x6[K:bass] x2 | x8 | x8 | z4 z2 A,,2 | x8 | D,8 | G,2[K:treble] z2 z4[K:bass] | G,4 z4 | %16
 [D,B,]2[K:treble][K:bass] z2 z4 |[M:3/4] x6 |] %18

